libs/ui/packages/crypto-icons/src/svg/GSC.svg

<svg width="24" height="24" viewBox="0 0 24 24" fill="none">
<path d="M18.8606 9.09336H11.9996C11.4683 9.09253 10.947 9.23729 10.4922 9.51191C10.0375 9.78654 9.66669 10.1805 9.42012 10.6511C9.17355 11.1216 9.06063 11.6508 9.09364 12.181C9.12665 12.7112 9.30432 13.2222 9.60735 13.6586C9.91038 14.0949 10.3272 14.4399 10.8125 14.656C11.2978 14.8721 11.833 14.9511 12.3601 14.8843C12.8871 14.8176 13.3858 14.6078 13.8019 14.2776C14.2181 13.9474 14.5358 13.5094 14.7206 13.0114H11.9996C11.8988 13.0115 11.799 12.9917 11.7058 12.9532C11.6127 12.9146 11.5281 12.8581 11.4568 12.7869C11.3855 12.7156 11.329 12.631 11.2905 12.5378C11.252 12.4447 11.2322 12.3449 11.2323 12.2441V12.1511C11.2322 12.0503 11.252 11.9505 11.2905 11.8574C11.329 11.7642 11.3855 11.6796 11.4568 11.6084C11.5281 11.5371 11.6127 11.4806 11.7058 11.4421C11.799 11.4035 11.8988 11.3838 11.9996 11.3839H16.5348C16.5678 11.5954 16.5836 11.8091 16.5813 12.0229C16.5769 12.9281 16.3044 13.8117 15.7982 14.5622C15.2921 15.3127 14.575 15.8964 13.7374 16.2398C12.8998 16.5831 11.9793 16.6706 11.092 16.4913C10.2047 16.312 9.39042 15.8739 8.7519 15.2322C8.11338 14.5905 7.67923 13.7741 7.50426 12.886C7.32929 11.9978 7.42133 11.0777 7.76876 10.2418C8.1162 9.40594 8.70345 8.6917 9.45642 8.18923C10.2094 7.68677 11.0943 7.41862 11.9996 7.41861L12.1398 7.39536C12.1691 7.40886 12.1998 7.41636 12.2328 7.41861H16.3023C18.5231 7.41861 19.4298 6.23286 19.4298 4.55811H11.9996C7.89555 4.55811 4.56555 7.88285 4.55805 11.9884C4.55205 16.0939 7.87155 19.4284 11.9771 19.4419C16.0826 19.4546 19.4223 16.1404 19.4418 12.0349V9.68585C19.4433 9.60858 19.4294 9.53179 19.4008 9.45996C19.3723 9.38814 19.3297 9.32273 19.2756 9.26756C19.2215 9.21239 19.1569 9.16856 19.0856 9.13865C19.0144 9.10874 18.9378 9.09334 18.8606 9.09336Z" fill="#FF0060"/>
</svg>

<svg width="24" height="24" viewBox="0 0 24 24" fill="none"><path fill="#ff0060" d="M18.86 9.093H12a2.907 2.907 0 1 0 2.72 3.918H12a.767.767 0 0 1-.768-.767v-.093a.767.767 0 0 1 .768-.767h4.535q.05.317.046.639A4.58 4.58 0 1 1 12 7.419l.14-.024q.044.02.093.024h4.07c2.22 0 3.127-1.186 3.127-2.86H12a7.443 7.443 0 1 0 7.442 7.477v-2.35a.58.58 0 0 0-.581-.593"/></svg>
